components/Navbar/GDL-logo.svg

<?xml version="1.0" encoding="UTF-8"?>
<svg height="69px" viewBox="0 0 216 69" version="1.1" xmlns="http://www.w3.org/2000/svg" xmlns:xlink="http://www.w3.org/1999/xlink">
    <!-- Generator: Sketch 47.1 (45422) - http://www.bohemiancoding.com/sketch -->
    <title>GDL-Logo</title>
    <desc>Created with Sketch.</desc>
    <defs></defs>
    <g id="Styleguide" stroke="none" stroke-width="1" fill="none" fill-rule="evenodd">
        <g id="Logo" transform="translate(-101.000000, -697.000000)" fill="#fff">
            <g id="GDL-Logo" transform="translate(101.000000, 697.000000)">
                <path d="M0,11.6892339 L0,9.39754046 C0,6.98421539 0.635427659,5.10027731 1.9066702,3.74611235 C3.17752551,2.39194739 4.93627775,1.71428571 7.1825397,1.71428571 C9.42880164,1.71428571 11.2309225,2.39194739 12.5892895,3.74611235 C13.546884,4.70063068 14.0258749,6.1339527 14.0258749,8.0433755 L10.6303446,8.0433755 C10.6303446,5.97679698 9.52405771,4.94427998 7.31341998,4.94427998 C6.65127416,4.94427998 6.08980548,5.07015902 5.6282395,5.32153095 C5.16706074,5.57367516 4.82320958,5.86481869 4.59707323,6.19380317 C4.37016244,6.52433217 4.19591353,7.0108585 4.07432652,7.6526099 C3.95235229,8.29513357 3.88265273,8.83378772 3.86522784,9.2678001 C3.84780295,9.70181248 3.83967134,10.282555 3.83967134,11.0131168 C3.83967134,11.7417479 3.84315632,12.2321355 3.85244959,12.4838936 C3.86096843,12.7368101 3.88729937,13.1445655 3.93066799,13.7083182 C3.9740366,14.2732294 4.04373616,14.6763512 4.13937945,14.9196143 C4.23540995,15.1624914 4.37480907,15.4756444 4.55757681,15.8567567 C4.74073177,16.2390274 4.97112753,16.5081614 5.24992578,16.6641588 C5.96357183,17.1159332 6.77324839,17.3422066 7.67856824,17.3422066 C9.19375923,17.3422066 10.2644219,16.700069 10.8913307,15.4146356 L10.8913307,14.163954 L8.64545603,14.163954 L8.64545603,11.1432433 L13.9995439,11.1432433 L13.9995439,16.7425436 C13.4597595,18.0106011 12.6063272,18.9655055 11.439634,19.6072569 C10.273328,20.2505529 8.94942355,20.5714286 7.46985677,20.5714286 C4.84024725,20.5714286 2.93822369,19.8377778 1.76301166,18.3704761 C0.587412406,16.9035606 0,14.6763512 0,11.6892339 Z" id="Fill-1"></path>
                <polygon id="Fill-3" points="21.884438 19.6890404 18.3779692 19.7142857 18.3779692 0.857142857 21.884438 0.857142857"></polygon>
                <path d="M34.3152169,13.4943429 L34.3152169,12.1408714 C34.3152169,10.8579857 34.1325174,9.8775 33.7667401,9.20095714 C33.4009628,8.5248 32.639904,8.18614286 31.4831855,8.18614286 C29.611934,8.18614286 28.6768757,9.47018571 28.6768757,12.0371143 L28.6768757,13.3898143 C28.6768757,16.1472857 29.611934,17.5266 31.4831855,17.5266 C32.6909691,17.5266 33.4815322,17.0672143 33.8560094,16.1472857 C34.1623999,15.4194429 34.3152169,14.5346143 34.3152169,13.4943429 M37.6325557,12.7136571 C37.6325557,15.9231857 37.0364182,18.0727714 35.8460344,19.1662714 C34.8425111,20.1020143 33.388102,20.5714286 31.4831855,20.5714286 C29.0505964,20.5714286 27.409327,19.8416571 26.5589989,18.3855857 C25.7593576,17.0498571 25.3599152,15.1590857 25.3599152,12.7136571 C25.3599152,10.4236714 25.7593576,8.62894286 26.5589989,7.32792857 C27.4429921,5.87031429 29.0547573,5.14285714 31.3939161,5.14285714 C33.7326967,5.14285714 35.3569445,5.77928571 36.2670377,7.05445714 C37.1767526,8.32885714 37.6325557,10.2153857 37.6325557,12.7136571" id="Fill-5"></path>
                <path d="M45.379078,16.9098273 L47.0678084,16.9098273 C48.968217,16.9098273 49.9186169,15.4478261 49.9186169,12.5264224 C49.9186169,11.0410321 49.7734549,10.0059738 49.483131,9.42199009 C49.1928071,8.83726385 48.5632503,8.54545761 47.5960257,8.54545761 L44.5081064,10.1225478 L44.5081064,15.7574525 C44.5081064,16.4245973 44.7984302,16.8092172 45.379078,16.9098273 M48.0706388,19.7142857 L45.0887541,19.6886691 C43.7689934,19.6886691 42.770467,19.3222407 42.093175,18.5871563 C41.4154917,17.8524431 41.0770414,16.9759106 41.0770414,15.9575588 L41.0770414,0.857142857 L44.5081064,0.857142857 L44.5081064,7.16810247 L48.5988561,5.36454686 C50.1643357,5.36454686 51.3174146,5.76513074 52.0561363,6.56666976 C52.7072131,7.28430521 53.1117884,8.44521883 53.2702536,10.0479256 C53.3230754,10.7150704 53.3496819,11.5425973 53.3496819,12.5264224 C53.3496819,17.3182075 51.58974,19.7142857 48.0706388,19.7142857" id="Fill-7"></path>
                <path d="M64.7607198,14.9993001 L64.7607198,8.27800095 L62.1025169,8.27800095 C61.1175844,8.27800095 60.4328294,8.62862246 60.0478538,9.33098094 C59.6624801,10.0333394 59.4705894,11.0829731 59.4705894,12.4783946 C59.4705894,13.8753035 59.6537216,14.856895 60.0207821,15.4257719 C60.3878426,15.9935333 61.0817542,16.2779718 62.1025169,16.2779718 L64.7607198,14.9993001 Z M68.2521739,19.5633288 L65.9156466,19.5633288 L64.8411387,17.8332738 L61.1084278,19.7142857 C59.0318685,19.7142857 57.6352869,19.0119272 56.919479,17.6072103 C56.561177,16.9219553 56.315143,16.1824153 56.1809788,15.3878468 C56.0468146,14.59365 55.9795334,13.7663617 55.9795334,12.9044946 C55.9795334,12.0437429 55.98869,11.4094266 56.006207,10.9985711 C56.0241221,10.5895746 56.0687108,10.112536 56.1403712,9.56931433 C56.2116335,9.02646448 56.315143,8.57024751 56.4497053,8.20215069 C56.5834714,7.83479751 56.7761582,7.4544308 57.0265715,7.06105056 C57.277383,6.66878577 57.5815416,6.35534575 57.9398436,6.12035869 C58.745625,5.60316407 59.7926632,5.34363723 61.0817542,5.34363723 L64.7607198,5.34363723 L68.2521739,5.14285714 L68.2521739,19.5633288 Z" id="Fill-9"></path>
                <polygon id="Fill-11" points="76.110737 19.6890404 72.6042683 19.7142857 72.6042683 0.857142857 76.110737 0.857142857"></polygon>
                <path d="M97.6466065,13.8618308 C97.7420706,13.1793255 97.7899958,12.1134029 97.7899958,10.6640629 C97.7899958,9.21472298 97.7420706,8.16529142 97.6466065,7.51689264 C97.5507559,6.86774426 97.3377976,6.34940003 97.008118,5.96148515 C96.3823839,5.22013671 95.4787605,4.8490877 94.2964747,4.8490877 L91.037942,4.8490877 L91.037942,14.8100672 C91.037942,15.4839521 91.272544,15.9472012 91.7417479,16.1998144 C92.2113384,16.4528024 93.0492579,16.5798585 94.2574388,16.5798585 C95.4652332,16.5798585 96.3823839,16.2088095 97.008118,15.4674611 C97.3377976,15.0795462 97.5507559,14.5443361 97.6466065,13.8618308 M101.413766,10.6385767 L101.439661,12.5852723 C101.370092,13.815356 101.213948,14.8524192 100.970457,15.6945881 C100.726965,16.5378813 100.248872,17.3047159 99.5365632,17.9947171 C98.3546639,19.1415959 96.6339917,19.7142857 94.374933,19.7142857 C91.7158528,19.7142857 89.8908272,19.3732205 88.9002425,18.6907151 C87.9092714,18.0082098 87.4137858,16.7740034 87.4137858,14.9873461 L87.4137858,1.71428571 L94.6358166,1.71428571 C96.7209529,1.71428571 98.3546639,2.2873503 99.5365632,3.43310469 C100.492363,4.36110202 101.057418,5.48961574 101.230954,6.82126943 C101.352699,7.76500824 101.413766,9.037444 101.413766,10.6385767" id="Fill-13"></path>
                <path d="M106.023798,20.5714286 L109.04277,20.5714286 L109.04277,6.2313416 L106.023798,6.2313416 L106.023798,20.5714286 Z M107.556523,0 C108.283982,0 108.756331,0.126397165 108.973226,0.378031889 C109.189776,0.630439684 109.298224,1.16076663 109.298224,1.96862619 C109.298224,2.77687228 109.185989,3.30719923 108.96152,3.55844742 C108.737051,3.81162828 108.265046,3.93763891 107.545162,3.93763891 C106.824933,3.93763891 106.352583,3.80737639 106.128114,3.54569174 C105.90399,3.28516669 105.791755,2.75483975 105.791755,1.95625705 C105.791755,1.1561282 105.90399,0.630439684 106.128114,0.378031889 C106.352583,0.126397165 106.82872,0 107.556523,0 L107.556523,0 Z" id="Fill-15"></path>
                <path d="M121.555172,13.8242729 L121.555172,8.30710448 L118.896883,8.30710448 C117.893605,8.30710448 117.204846,8.62758209 116.829015,9.26853731 C116.452786,9.9098678 116.26487,10.8041279 116.26487,11.951693 C116.26487,13.099258 116.457165,13.9128358 116.842551,14.394678 C117.226743,14.8757697 117.911919,15.115565 118.896883,15.115565 L121.555172,13.8242729 Z M121.555172,5.34550107 L125.046341,5.14285714 L125.046341,19.0393518 C125.046341,20.6424904 124.567396,21.8696119 123.609902,22.7218422 C122.651612,23.5740725 121.233088,24 119.353136,24 C117.90316,24 116.631943,23.7301834 115.539882,23.1901748 C114.96658,22.9203582 114.510328,22.5154456 114.170328,21.9761876 C113.82993,21.4350533 113.65993,20.7937228 113.65993,20.0525714 L116.909437,19.8994627 C116.909437,20.3719232 117.088195,20.7096631 117.446509,20.912307 C117.804425,21.1153262 118.417539,21.2162729 119.285852,21.2162729 C120.154166,21.2162729 120.744985,21.0132537 121.058311,20.6090917 C121.371636,20.2034286 121.5281,19.6217655 121.5281,18.862226 L121.663064,16.6853049 L117.90316,18.5837783 C115.844051,18.5837783 114.456183,17.925936 113.74075,16.6091258 C113.095785,15.445049 112.773701,14.0194115 112.773701,12.3310874 C112.773701,10.3230362 112.934942,8.90602985 113.257424,8.0793177 C113.597026,7.16779531 114.080351,6.50957783 114.7074,6.10466525 C115.513208,5.59880597 116.569039,5.34550107 117.876485,5.34550107 L121.555172,5.34550107 Z" id="Fill-17"></path>
                <path d="M129.630502,20.5714286 L132.64977,20.5714286 L132.64977,6.2313416 L129.630502,6.2313416 L129.630502,20.5714286 Z M131.163377,0 C131.890907,0 132.362958,0.126397165 132.579874,0.378031889 C132.796446,0.630439684 132.904905,1.16076663 132.904905,1.96862619 C132.904905,2.77687228 132.792659,3.30719923 132.568512,3.55844742 C132.343677,3.81162828 131.871626,3.93763891 131.15167,3.93763891 C130.431715,3.93763891 129.959319,3.80737639 129.734828,3.54569174 C129.510337,3.28516669 129.398436,2.75483975 129.398436,1.95625705 C129.398436,1.1561282 129.510337,0.630439684 129.734828,0.378031889 C129.959319,0.126397165 130.435158,0 131.163377,0 L131.163377,0 Z" id="Fill-18"></path>
                <path d="M145.146554,20.5714286 L142.920051,20.5714286 C141.563282,20.5714286 140.532562,20.1913576 139.827483,19.4285201 C139.121588,18.6668378 138.769048,17.757286 138.769048,16.7010198 L138.769048,8.90937213 L137.256999,8.90937213 L137.256999,6.33782804 L138.769048,6.33782804 L138.769048,3.42857143 L142.342538,3.42857143 L142.342538,6.33782804 L144.871858,6.33782804 L144.871858,8.90937213 L142.342538,8.90937213 L142.342538,16.4934633 C142.342538,17.3075161 142.754581,17.7141574 143.579484,17.7141574 L145.146554,17.7141574 L145.146554,20.5714286 Z" id="Fill-19"></path>
                <path d="M155.649869,14.9993001 L155.649869,8.27800095 L152.99158,8.27800095 C152.006616,8.27800095 151.321839,8.62862246 150.937249,9.33098094 C150.551863,10.0333394 150.359568,11.0829731 150.359568,12.4783946 C150.359568,13.8753035 150.542706,14.856895 150.910176,15.4257719 C151.27685,15.9935333 151.971183,16.2779718 152.99158,16.2779718 L155.649869,14.9993001 Z M159.141437,19.5633288 L156.804834,19.5633288 L155.730689,17.8332738 L151.997857,19.7142857 C149.920832,19.7142857 148.524604,19.0119272 147.808773,17.6072103 C147.450459,16.9219553 147.204417,16.1824153 147.06985,15.3878468 C146.935682,14.59365 146.868796,13.7663617 146.868796,12.9044946 C146.868796,12.0437429 146.877555,11.4094266 146.895471,10.9985711 C146.912988,10.5895746 146.957579,10.112536 147.029639,9.56931433 C147.100904,9.02646448 147.204417,8.57024751 147.338585,8.20215069 C147.472754,7.83479751 147.665049,7.4544308 147.915868,7.06105056 C148.166688,6.66878577 148.470857,6.35534575 148.82917,6.12035869 C149.63458,5.60316407 150.681652,5.34363723 151.971183,5.34363723 L155.649869,5.34363723 L159.141437,5.14285714 L159.141437,19.5633288 Z" id="Fill-20"></path>
                <polygon id="Fill-21" points="167 19.6890404 163.493531 19.7142857 163.493531 0.857142857 167 0.857142857"></polygon>
                <path d="M22.9871314,69 L11.8861747,69 C7.69731021,69 4.66822399,68.2159247 2.80163305,66.6492733 C0.933489539,65.0818723 0,62.5280057 0,58.9887977 L0,33 L7.27850139,33 L7.27850139,58.9887977 C7.27850139,60.4040311 7.60958936,61.3830009 8.27331789,61.9215841 C8.93588198,62.4605422 10.1399088,62.730396 11.8861747,62.730396 L22.9871314,62.730396 L22.9871314,69 Z" id="Fill-22"></path>
                <polygon id="Fill-23" points="32.6722689 69 39.7452324 69 39.7452324 33 32.6722689 33"></polygon>
                <path d="M70.8480934,58.2808062 C70.8480934,56.6631824 70.5472859,55.4417191 69.9452772,54.6152917 C69.3424811,53.7892392 68.2628816,53.3765877 66.7052974,53.3765877 L58.206699,53.3765877 L58.206699,59.0386457 C58.206699,60.4216466 58.5693216,61.3826261 59.295748,61.9215841 C60.0205995,62.4601674 61.2159549,62.730396 62.8810265,62.730396 L66.7052974,62.730396 C69.4672926,62.730396 70.8480934,61.2476992 70.8480934,58.2808062 L70.8480934,58.2808062 Z M66.226919,47.0563861 C68.9534788,47.0563861 70.3169556,45.758839 70.3169556,43.1626202 C70.3169556,40.5675259 68.9534788,39.2692292 66.226919,39.2692292 L58.206699,39.2692292 L58.206699,47.0563861 L66.226919,47.0563861 Z M78.231263,58.6349894 C78.231263,61.9718069 77.283562,64.5342939 75.3897349,66.3205764 C73.4951203,68.1068588 70.8480934,69 67.4490478,69 L62.3498888,69 C58.1708699,69 55.2057115,68.309624 53.4524449,66.9266231 C51.6999658,65.5451214 50.8235294,63.1516678 50.8235294,59.7477616 L50.8235294,33 L66.8112099,33 C70.4232619,33 73.140766,33.8597843 74.9645097,35.5782285 C76.7878596,37.2970474 77.7001252,39.7242327 77.7001252,42.8594095 C77.7001252,44.6797984 77.2130848,46.2307084 76.2393978,47.5110149 C75.2649234,48.7924458 74.1947733,49.702078 73.0257977,50.2410361 C76.4957142,51.7923208 78.231263,54.5898055 78.231263,58.6349894 L78.231263,58.6349894 Z" id="Fill-24"></path>
                <path d="M105.103924,48.2444926 C106.10116,47.2160496 106.599972,45.9361179 106.599972,44.4016991 C106.599972,42.8680298 106.11828,41.6293258 105.156062,40.6852122 C104.193455,39.7418482 102.907515,39.269604 101.298241,39.269604 L97.6765973,39.269604 C95.5062569,39.269604 94.4222539,40.331029 94.4222539,42.4550035 L94.4222539,49.7864074 L101.298241,49.7864074 C102.837868,49.7864074 104.106688,49.2725607 105.103924,48.2444926 L105.103924,48.2444926 Z M115.417904,69 L106.967273,69 L99.6710693,55.6516054 L94.4222539,55.6516054 L94.4222539,69 L87.1260504,69 L87.1260504,40.7361846 C87.1260504,38.0391455 87.773106,36.0755841 89.0683845,34.8458752 C90.3621066,33.6157914 92.532447,33 95.576682,33 L101.770985,33 C105.479395,33 108.427914,34.0869113 110.615375,36.2614834 C112.802057,38.4356807 113.896176,41.1908133 113.896176,44.5280057 C113.896176,46.9548161 113.239782,49.0533045 111.927384,50.8234706 C110.615375,52.5925124 108.995985,53.8151002 107.072327,54.4889851 L115.417904,69 Z" id="Fill-25"></path>
                <path d="M140.266987,56.8648232 L135.869646,42.6067963 L131.263148,56.8648232 L140.266987,56.8648232 Z M151.626655,69 L144.036081,69 L141.942183,62.7813684 L129.430793,62.7813684 L127.388894,69 L119.798319,69 L131.733848,36.0336068 C132.257711,34.8878524 132.841332,34.0955316 133.48743,33.6570191 C134.133139,33.2192562 134.927469,33 135.869646,33 C136.81221,33 137.570841,33.2016408 138.14709,33.6067963 C138.722951,34.0104527 139.2375,34.820389 139.691126,36.0336068 L151.626655,69 Z" id="Fill-26"></path>
                <path d="M173.998481,48.2444926 C174.995703,47.2160496 175.494509,45.9361179 175.494509,44.4016991 C175.494509,42.8680298 175.012823,41.6293258 174.050618,40.6852122 C173.087635,39.7418482 171.802102,39.269604 170.19285,39.269604 L166.571257,39.269604 C164.400946,39.269604 163.316958,40.331029 163.316958,42.4550035 L163.316958,49.7864074 L170.19285,49.7864074 C171.732456,49.7864074 173.001259,49.2725607 173.998481,48.2444926 L173.998481,48.2444926 Z M184.31232,69 L175.861804,69 L168.565701,55.6516054 L163.316958,55.6516054 L163.316958,69 L156.020466,69 L156.020466,40.7361846 C156.020466,38.0391455 156.667902,36.0755841 157.963162,34.8458752 C159.256866,33.6157914 161.427177,33 164.47137,33 L170.665588,33 C174.373947,33 177.322426,34.0869113 179.509856,36.2614834 C181.696508,38.4356807 182.790612,41.1908133 182.790612,44.5280057 C182.790612,46.9548161 182.134228,49.0533045 180.821847,50.8234706 C179.509856,52.5925124 177.890488,53.8151002 175.966468,54.4889851 L184.31232,69 Z" id="Fill-27"></path>
                <polygon id="Fill-28" points="216 33 204.634752 54.236372 204.634752 69 197.305547 69 197.305547 54.236372 185.939905 33 193.959631 33 201.023494 47.5110149 207.980274 33"></polygon>
            </g>
        </g>
    </g>
</svg>

<svg xmlns="http://www.w3.org/2000/svg" height="69" viewBox="0 0 216 69">
    <g fill="#fff" fill-rule="evenodd">
        <path d="M0 11.69V9.397C0 6.984.635 5.1 1.907 3.746c1.27-1.354 3.03-2.032 5.276-2.032s4.048.678 5.406 2.032c.958.955 1.437 2.388 1.437 4.297H10.63c0-2.066-1.106-3.099-3.317-3.099-.662 0-1.223.126-1.685.378-.46.252-.805.543-1.03.872-.228.33-.402.817-.524 1.459a11.392 11.392 0 0 0-.209 1.615 45.91 45.91 0 0 0-.025 1.745c0 .729.003 1.22.012 1.47.009.254.035.662.079 1.225.043.565.113.968.208 1.212.096.242.236.556.419.937.183.382.413.651.692.807.714.452 1.523.678 2.429.678 1.515 0 2.585-.642 3.212-1.927v-1.251H8.645v-3.02H14v5.599c-.54 1.268-1.394 2.223-2.56 2.864-1.167.644-2.49.964-3.97.964-2.63 0-4.532-.733-5.707-2.2C.587 16.903 0 14.675 0 11.688zM21.884 19.689l-3.506.025V.857h3.506zM34.315 13.494v-1.353c0-1.283-.182-2.264-.548-2.94-.366-.676-1.127-1.015-2.284-1.015-1.871 0-2.806 1.284-2.806 3.851v1.353c0 2.757.935 4.137 2.806 4.137 1.208 0 1.999-.46 2.373-1.38.306-.728.46-1.612.46-2.653m3.317-.78c0 3.21-.597 5.359-1.787 6.452-1.003.936-2.458 1.405-4.363 1.405-2.432 0-4.074-.73-4.924-2.185-.8-1.336-1.2-3.227-1.2-5.672 0-2.29.4-4.085 1.2-5.386.884-1.458 2.496-2.185 4.835-2.185s3.963.636 4.873 1.911c.91 1.275 1.366 3.161 1.366 5.66M45.38 16.91h1.688c1.9 0 2.85-1.462 2.85-4.384 0-1.485-.145-2.52-.435-3.104-.29-.585-.92-.877-1.887-.877l-3.088 1.578v5.634c0 .668.29 1.052.871 1.153m2.692 2.804l-2.982-.025c-1.32 0-2.319-.367-2.996-1.102-.678-.735-1.016-1.611-1.016-2.63V.858h3.431v6.311l4.09-1.803c1.566 0 2.72.4 3.458 1.202.651.717 1.056 1.878 1.214 3.48.053.668.08 1.496.08 2.48 0 4.791-1.76 7.187-5.28 7.187M64.76 15V8.277h-2.657c-.985 0-1.67.35-2.055 1.053-.386.702-.577 1.752-.577 3.147 0 1.397.183 2.379.55 2.948.367.568 1.06.852 2.082.852l2.658-1.279zm3.492 4.563h-2.336l-1.075-1.73-3.733 1.881c-2.076 0-3.473-.702-4.189-2.107a7.423 7.423 0 0 1-.738-2.22 14.887 14.887 0 0 1-.201-2.483c0-.86.009-1.495.026-1.905.018-.41.063-.886.134-1.43.072-.543.175-.999.31-1.367.133-.367.326-.748.577-1.14.25-.393.555-.707.913-.942.806-.517 1.853-.776 3.142-.776h3.679l3.491-.201v14.42zM76.11 19.689l-3.506.025V.857h3.507zM97.647 13.862c.095-.683.143-1.749.143-3.198 0-1.45-.048-2.499-.143-3.147-.096-.65-.31-1.168-.639-1.556-.626-.74-1.53-1.112-2.712-1.112h-3.258v9.961c0 .674.235 1.137.704 1.39.47.253 1.307.38 2.515.38 1.208 0 2.125-.371 2.751-1.113.33-.387.543-.923.639-1.605m3.767-3.223l.026 1.946c-.07 1.23-.226 2.267-.47 3.11-.243.843-.721 1.61-1.433 2.3-1.182 1.147-2.903 1.72-5.162 1.72-2.66 0-4.484-.342-5.475-1.024-.99-.683-1.486-1.917-1.486-3.704V1.714h7.222c2.085 0 3.719.573 4.9 1.72a5.6 5.6 0 0 1 1.695 3.387c.122.944.183 2.216.183 3.818M106.024 20.571h3.019V6.231h-3.02v14.34zM107.557 0c.727 0 1.2.126 1.416.378.217.252.325.783.325 1.59 0 .809-.112 1.34-.336 1.59-.225.254-.697.38-1.417.38-.72 0-1.192-.13-1.417-.392-.224-.26-.336-.791-.336-1.59 0-.8.112-1.326.336-1.578.225-.252.7-.378 1.429-.378zM121.555 13.824V8.307h-2.658c-1.003 0-1.692.32-2.068.962-.376.64-.564 1.535-.564 2.683 0 1.147.192 1.96.578 2.443.384.48 1.069.72 2.054.72l2.658-1.29zm0-8.478l3.491-.203v13.896c0 1.603-.479 2.83-1.436 3.683-.958.852-2.377 1.278-4.257 1.278-1.45 0-2.721-.27-3.813-.81a3.2 3.2 0 0 1-1.37-1.214c-.34-.54-.51-1.182-.51-1.923l3.25-.154c0 .473.178.81.537 1.013.357.203.97.304 1.839.304.868 0 1.459-.203 1.772-.607.314-.406.47-.987.47-1.747l.135-2.177-3.76 1.899c-2.059 0-3.447-.658-4.162-1.975-.645-1.164-.967-2.59-.967-4.278 0-2.008.16-3.425.483-4.252.34-.911.823-1.57 1.45-1.974.806-.506 1.862-.76 3.17-.76h3.678zM129.63 20.571h3.02V6.231h-3.02v14.34zM131.164 0c.728 0 1.2.126 1.417.378.216.252.325.783.325 1.59 0 .809-.112 1.34-.336 1.59-.225.254-.697.38-1.417.38-.72 0-1.193-.13-1.417-.392-.225-.26-.337-.791-.337-1.59 0-.8.112-1.326.337-1.578.224-.252.7-.378 1.428-.378zM145.147 20.571h-2.227c-1.357 0-2.387-.38-3.093-1.142-.705-.762-1.058-1.672-1.058-2.728V8.909h-1.512V6.338h1.512v-2.91h3.574v2.91h2.529v2.571h-2.53v7.584c0 .815.413 1.221 1.237 1.221h1.568v2.857zM155.65 15V8.277h-2.658c-.985 0-1.67.35-2.055 1.053-.385.702-.577 1.752-.577 3.147 0 1.397.183 2.379.55 2.948.367.568 1.061.852 2.082.852l2.658-1.279zm3.491 4.563h-2.336l-1.074-1.73-3.733 1.881c-2.077 0-3.473-.702-4.19-2.107a7.435 7.435 0 0 1-.738-2.22 14.887 14.887 0 0 1-.201-2.483c0-.86.009-1.495.026-1.905.018-.41.063-.886.135-1.43.07-.543.174-.999.309-1.367a5.91 5.91 0 0 1 .577-1.14c.25-.393.555-.707.913-.942.806-.517 1.853-.776 3.142-.776h3.679l3.491-.201v14.42zM167 19.689l-3.506.025V.857H167zM22.987 69h-11.1c-4.19 0-7.219-.784-9.085-2.35C.933 65.081 0 62.527 0 58.988V33h7.279v25.989c0 1.415.33 2.394.994 2.933.663.539 1.867.808 3.613.808h11.101V69zM32.672 69h7.073V33h-7.073zM70.848 58.28c0-1.617-.3-2.838-.903-3.665-.603-.826-1.682-1.238-3.24-1.238h-8.498v5.662c0 1.383.362 2.344 1.089 2.883.725.538 1.92.808 3.585.808h3.824c2.762 0 4.143-1.482 4.143-4.45zm-4.621-11.224c2.726 0 4.09-1.297 4.09-3.893 0-2.595-1.364-3.894-4.09-3.894h-8.02v7.787h8.02zM78.23 58.635c0 3.337-.947 5.9-2.841 7.686C73.495 68.107 70.848 69 67.449 69h-5.1c-4.178 0-7.143-.69-8.897-2.073-1.752-1.382-2.628-3.775-2.628-7.18V33H66.81c3.612 0 6.33.86 8.154 2.578 1.823 1.719 2.735 4.146 2.735 7.281 0 1.82-.487 3.372-1.46 4.652-.975 1.281-2.045 2.191-3.214 2.73 3.47 1.551 5.205 4.349 5.205 8.394zM105.104 48.244c.997-1.028 1.496-2.308 1.496-3.842 0-1.534-.482-2.773-1.444-3.717-.963-.943-2.248-1.415-3.858-1.415h-3.621c-2.17 0-3.255 1.061-3.255 3.185v7.331h6.876c1.54 0 2.809-.513 3.806-1.542zM115.418 69h-8.45L99.67 55.652h-5.249V69h-7.296V40.736c0-2.697.647-4.66 1.942-5.89C90.362 33.616 92.532 33 95.577 33h6.194c3.708 0 6.657 1.087 8.844 3.261 2.187 2.175 3.281 4.93 3.281 8.267 0 2.427-.656 4.525-1.969 6.295-1.312 1.77-2.931 2.992-4.855 3.666L115.418 69zM140.267 56.865l-4.397-14.258-4.607 14.258h9.004zM151.627 69h-7.59l-2.095-6.219h-12.511L127.389 69h-7.59l11.935-32.966c.524-1.146 1.107-1.938 1.753-2.377.646-.438 1.44-.657 2.383-.657.942 0 1.7.202 2.277.607.576.403 1.09 1.213 1.544 2.427L151.627 69zM173.998 48.244c.998-1.028 1.497-2.308 1.497-3.842 0-1.534-.482-2.773-1.444-3.717-.963-.943-2.249-1.415-3.858-1.415h-3.622c-2.17 0-3.254 1.061-3.254 3.185v7.331h6.876c1.54 0 2.808-.513 3.805-1.542zM184.312 69h-8.45l-7.296-13.348h-5.249V69h-7.297V40.736c0-2.697.648-4.66 1.943-5.89 1.294-1.23 3.464-1.846 6.508-1.846h6.195c3.708 0 6.656 1.087 8.844 3.261 2.187 2.175 3.28 4.93 3.28 8.267 0 2.427-.656 4.525-1.968 6.295-1.312 1.77-2.932 2.992-4.856 3.666L184.312 69zM216 33l-11.365 21.236V69h-7.33V54.236L185.94 33h8.02l7.063 14.511L207.98 33z"/>
    </g>
</svg>
